styles/3/Numix/22/places/custom-folder-ubuntu.svg

<?xml version="1.0" encoding="UTF-8" standalone="no"?>
<!-- Created with Inkscape (http://www.inkscape.org/) -->

<svg
   xmlns:dc="http://purl.org/dc/elements/1.1/"
   xmlns:cc="http://creativecommons.org/ns#"
   xmlns:rdf="http://www.w3.org/1999/02/22-rdf-syntax-ns#"
   xmlns:svg="http://www.w3.org/2000/svg"
   xmlns="http://www.w3.org/2000/svg"
   xmlns:sodipodi="http://sodipodi.sourceforge.net/DTD/sodipodi-0.dtd"
   xmlns:inkscape="http://www.inkscape.org/namespaces/inkscape"
   width="22"
   height="22"
   id="svg2"
   version="1.1"
   inkscape:version="0.91 r"
   sodipodi:docname="custom-folder-ubuntu.svg"
   inkscape:export-filename="/media/Data/Main/Visuals/Icons/Numix/Desktop/repos/numix-wiki/Gjorgi/Numix-folders/48/New/folder-144.png"
   inkscape:export-xdpi="270"
   inkscape:export-ydpi="270">
  <defs
     id="defs4" />
  <sodipodi:namedview
     id="base"
     pagecolor="#ffffff"
     bordercolor="#666666"
     borderopacity="1.0"
     inkscape:pageopacity="0.0"
     inkscape:pageshadow="2"
     inkscape:zoom="22.629357"
     inkscape:cx="5.3428774"
     inkscape:cy="9.3840024"
     inkscape:document-units="px"
     inkscape:current-layer="layer1"
     showgrid="true"
     inkscape:window-width="1280"
     inkscape:window-height="998"
     inkscape:window-x="0"
     inkscape:window-y="0"
     inkscape:window-maximized="1"
     showguides="true"
     inkscape:guide-bbox="true">
    <inkscape:grid
       type="xygrid"
       id="grid2985"
       empspacing="5"
       visible="true"
       enabled="true"
       snapvisiblegridlinesonly="true" />
  </sodipodi:namedview>
  <metadata
     id="metadata7">
    <rdf:RDF>
      <cc:Work
         rdf:about="">
        <dc:format>image/svg+xml</dc:format>
        <dc:type
           rdf:resource="http://purl.org/dc/dcmitype/StillImage" />
        <dc:title />
      </cc:Work>
    </rdf:RDF>
  </metadata>
  <g
     inkscape:label="Layer 1"
     inkscape:groupmode="layer"
     id="layer1"
     transform="translate(0,-1030.3622)">
    <rect
       style="fill:replacecolour2;fill-opacity:1;stroke:none"
       id="rect3757"
       width="20"
       height="5"
       x="0.99999905"
       y="1033.3622" />
    <path
       style="fill:replacecolour2;fill-opacity:1;stroke:none"
       d="m 3.9999992,1034.3622 c 0,-1 0,-2 0.909091,-2 l 3.181819,0 c 0.90909,0 0.90909,1 0.90909,2 z"
       id="path3759"
       inkscape:connector-curvature="0"
       sodipodi:nodetypes="ccccc" />
    <path
       style="fill:#95989f;fill-opacity:1;stroke:none"
       d="m 2,1034.3622 17.999998,0 0,4 -17.999998,0 z"
       id="path3765"
       inkscape:connector-curvature="0" />
    <rect
       y="1034.3622"
       x="4.999999"
       height="6"
       width="14"
       id="rect3763"
       style="fill:#d8d8da;fill-opacity:1;stroke:none" />
    <rect
       style="fill:#f9f9f9;fill-opacity:1;stroke:none"
       id="rect3761"
       width="14"
       height="3.0000174"
       x="3"
       y="1035.3622" />
    <path
       style="fill:replacecolour1;fill-opacity:1;stroke:none"
       d="m 0,1036.3622 21.999999,0 -1,14 -19.9999994,0 z"
       id="path2987"
       inkscape:connector-curvature="0"
       sodipodi:nodetypes="ccccc" />
    <path
       style="opacity:1.0;fill:replacecolour3;fill-opacity:1;stroke:none"
       d="M 11 8 C 8.7805057 8 6.9343463 9.4673108 6.28125 11.46875 C 6.7204655 11.835618 7 12.382948 7 13 C 7 13.617052 6.7204655 14.164382 6.28125 14.53125 C 6.9343463 16.532689 8.7805057 18 11 18 C 11.345178 18 11.674512 17.972854 12 17.90625 C 12.049335 16.845528 12.927106 16 14 16 C 14.291093 16 14.563018 16.075687 14.8125 16.1875 C 15.542374 15.318457 16 14.223684 16 13 C 16 11.776316 15.542374 10.681543 14.8125 9.8125 C 14.563018 9.924313 14.291093 10 14 10 C 12.927106 10 12.049335 9.1544717 12 8.09375 C 11.674512 8.0271455 11.345178 8 11 8 z M 11 10 C 12.656854 10 14 11.343146 14 13 C 14 14.656854 12.656854 16 11 16 C 9.3431458 16 8 14.656854 8 13 C 8 11.343146 9.3431458 10 11 10 z "
       transform="translate(0,1030.3622)"
       id="path3030" />
    <path
       sodipodi:type="arc"
       style="fill:replacecolour3;fill-opacity:1;stroke:none;opacity:1.0"
       id="path3804"
       sodipodi:cx="4"
       sodipodi:cy="13"
       sodipodi:rx="2"
       sodipodi:ry="2"
       d="m 6,13 c 0,1.104569 -0.8954305,2 -2,2 -1.1045695,0 -2,-0.895431 -2,-2 0,-1.104569 0.8954305,-2 2,-2 1.1045695,0 2,0.895431 2,2 z"
       transform="matrix(0.5,0,0,0.5,3,1036.8622)" />
    <path
       sodipodi:type="arc"
       style="fill:replacecolour3;fill-opacity:1;stroke:none;opacity:1.0"
       id="path3811"
       sodipodi:cx="4"
       sodipodi:cy="13"
       sodipodi:rx="2"
       sodipodi:ry="2"
       d="m 6,13 c 0,1.104569 -0.8954305,2 -2,2 -1.1045695,0 -2,-0.895431 -2,-2 0,-1.104569 0.8954305,-2 2,-2 1.1045695,0 2,0.895431 2,2 z"
       transform="matrix(0.5,0,0,0.5,12,1041.8622)" />
    <path
       transform="matrix(0.5,0,0,0.5,12,1031.8622)"
       d="m 6,13 c 0,1.104569 -0.8954305,2 -2,2 -1.1045695,0 -2,-0.895431 -2,-2 0,-1.104569 0.8954305,-2 2,-2 1.1045695,0 2,0.895431 2,2 z"
       sodipodi:ry="2"
       sodipodi:rx="2"
       sodipodi:cy="13"
       sodipodi:cx="4"
       id="path3815"
       style="fill:replacecolour3;fill-opacity:1;stroke:none;opacity:1.0"
       sodipodi:type="arc" />
  </g>
</svg>

<!-- Created with Inkscape (http://www.inkscape.org/) -->
<svg xmlns="http://www.w3.org/2000/svg" viewBox="0 0 22 22">
 <g transform="translate(0,-1030.3622)">
  <rect width="20" height="5" x="1" y="1033.36" style="fill:replacecolour2;fill-opacity:1;stroke:none"/>
  <path d="m 4 1034.36 c 0 -1 0 -2 0.909 -2 l 3.182 0 c 0.909 0 0.909 1 0.909 2 z" style="fill:replacecolour2;fill-opacity:1;stroke:none"/>
  <path d="m 2 1034.36 18 0 0 4 -18 0 z" style="fill:#95989f;fill-opacity:1;stroke:none"/>
  <rect y="1034.36" x="5" height="6" width="14" style="fill:#d8d8da;fill-opacity:1;stroke:none"/>
  <rect width="14" height="3" x="3" y="1035.36" style="fill:#f9f9f9;fill-opacity:1;stroke:none"/>
  <path d="m 0 1036.36 22 0 -1 14 -20 0 z" style="fill:replacecolour1;fill-opacity:1;stroke:none"/>
  <path d="m 11 8 c -2.219 0 -4.066 1.467 -4.719 3.469 c 0.439 0.367 0.719 0.914 0.719 1.531 c 0 0.617 -0.28 1.164 -0.719 1.531 c 0.653 2 2.499 3.469 4.719 3.469 c 0.345 0 0.675 -0.027 1 -0.094 c 0.049 -1.061 0.927 -1.906 2 -1.906 c 0.291 0 0.563 0.076 0.813 0.188 c 0.73 -0.869 1.188 -1.964 1.188 -3.188 c 0 -1.224 -0.458 -2.318 -1.188 -3.188 c -0.249 0.112 -0.521 0.188 -0.813 0.188 c -1.073 0 -1.951 -0.846 -2 -1.906 c -0.325 -0.067 -0.655 -0.094 -1 -0.094 z m 0 2 c 1.657 0 3 1.343 3 3 c 0 1.657 -1.343 3 -3 3 c -1.657 0 -3 -1.343 -3 -3 c 0 -1.657 1.343 -3 3 -3 z" transform="translate(0,1030.3622)" style="fill:replacecolour3;opacity:1;fill-opacity:1;stroke:none"/>
  <path d="m 6 13 c 0 1.105 -0.895 2 -2 2 -1.105 0 -2 -0.895 -2 -2 0 -1.105 0.895 -2 2 -2 1.105 0 2 0.895 2 2 z" transform="matrix(0.5,0,0,0.5,3,1036.8622)" style="fill:replacecolour3;opacity:1;fill-opacity:1;stroke:none"/>
  <path d="m 6 13 c 0 1.105 -0.895 2 -2 2 -1.105 0 -2 -0.895 -2 -2 0 -1.105 0.895 -2 2 -2 1.105 0 2 0.895 2 2 z" transform="matrix(0.5,0,0,0.5,12,1041.8622)" style="fill:replacecolour3;opacity:1;fill-opacity:1;stroke:none"/>
  <path transform="matrix(0.5,0,0,0.5,12,1031.8622)" d="m 6 13 c 0 1.105 -0.895 2 -2 2 -1.105 0 -2 -0.895 -2 -2 0 -1.105 0.895 -2 2 -2 1.105 0 2 0.895 2 2 z" style="fill:replacecolour3;opacity:1;fill-opacity:1;stroke:none"/>
 </g>
</svg>
